X:1
T:When Comes My Gwen
T:When Comes My Gwen
T:Copyright © CPDL 
T:Copyright © CPDL 
T:Copyright © CPDL 
T:Copyright © CPDL 
T:Copyright © CPDL 
T:Copyright © CPDL 
Z:Copyright © CPDL
%%score 1 { ( 2 3 ) ( 4 5 ) }
L:1/8
Q:1/4=80
M:3/4
K:Eb
V:1 treble nm="P1"
V:2 treble nm="P2" snm=" "
V:3 treble 
V:4 bass nm=" " snm=" "
V:5 bass 
V:1
"^Editor: John Henry Fowler""^(  Revision:   3 - 21 - 2008  )""^Allegro" z | %1
w: |
[M:3/4] z2"^No. 1 from \"English Lyrics\" set No. 6  -  (1903)""^Translated from the Welsh by E. O. Jones" z2 z2 | %2
w: |
"^Charles Hubert Hastings Parry" z6 | z2"^( 1848 - 1918 )" z2!mf! z G | F>E B3 G | %5
w: |When|comes my Gwen, More|
 FE c3!<(! c!<)! | e3!>(! G G>!>)!F | F2 E2 z E | cA B3 e | AF G3 B | F3!<(! B!<)! d>=A | %11
w: glo- rious then The|sun in heav'n ap-|\-~pear- eth; And|sum- mer's self To|meet this elf A|smile more ra- diant|
!>(! =A2!>)! B2 z B |!p! A>G"^cresc." c3 B | B>A d3 c | B3 G GD | !>!FE z2 z E | c3 B BA | %17
w: wear- eth. When|comes my love, The|moon a- bove Shines|bright and ev- er|bright- er; And|all the black and|
 G!<(!F!<)! e4- |!p! e2 A2 Bc | B2 G2 z2 | G2 E2 z2 | z6 | z6 | z2 z2 z G | F>F B3 B | FE c2 e2 | %26
w: sul- len wrack|_ Grows in a|mo- ment|light- er.|||When|comes my Queen, The|tree- tops green bow|
 B3 G G>D | F2 E2 z E | cA e3 B | A>F G3 B | F2 z B d>=A | =A2 B2 z B |!p! _A>G c3 B | B>A d3 c | %34
w: down to earth to|greet her; And|tem- pests high That|rend the sky Dis-|\-~perse, a- shamed to|meet her. When|comes my sweet Her|love to greet, My|
 B3 G GD | !>!F E3 E2 | cB B3 A | GF e4- | e2 z2 c2 | BG !>!B3 G | G E3 z2 | z6 | z6 || %43
w: cares and sor- rows|van- ish; For|on her face Rests|heaven- ly grace,|_ Which|trou- bles all doth|ban- ish.|||
[K:G] z!p! A B>A ^c2- |"^cresc." cB ^c>B d2- | dG AB !>!B>E | E D3 z2 |!p! z"^poco rit." G AB d2- | %48
w: When comes my dear,|_ The dark- ness drear|_ 'Twixt God and me is|ri- ven.|Her lov- ing eyes|
 d"^allargando"G A_B d2- | d2 z _B _e2- ||[K:Eb] !fermata!e3!>(! E!>)!"^Meno mosso." E2- | %51
w: _ Re- veal the skies|_ And point|_ the way,|
 E!p! z/ G/ c3 B | B6- | B6 | z6 | z6 |] %56
w: _ the way to|heav'n.|_|||
V:2
"^Allegro" .[GBg] |[M:3/4] (!>![FGBf]>[Ee]) (.[Bgb]3 [Gdg]) | %2
 (!>![FGcg][Ee]) ([CEc][A,A]) ([G,DG][F,A,D]) | z6 | %4
 x/ x/ [G,B,]/G/ x/ x/ [F,B,]/F/ x/ x/ [A,D]/G/ | x/ x/ [G,C]/E/ x/ x/ [G,C]/E/ x/ x/ [A,C]/E/ | %6
 x/ x/ [B,E]/B/ x/ x/ [B,D]/!>(!G/ x/ x/ [FB]/!>)!d/ | x/ x/ [EG]/e/ x/ x/ [EG]/c/ x/ x/ [EG]/c/ | %8
 x/ x/ [EA]/c/ x/ x/ [EB]/e/ x/ x/ [B,E]/B/ | x/ x/ [A,D]/A/ x/ x/ [G,E]/G/ x/ x/ [B,G]/B/ | %10
 x/ x/ B,/F/ [DFd]2 [=A,E=A]2 | x/ x/ [B,D]/F/ x/ x/ [DB]/d/ x/ x/ F/B/ | %12
 ([C=Ec]2 [Dcd]2 [EB=e]2) | ([FAf]2 [Gfg]2 [Afa]2) | ([Bab]2 [cgc']2 [dad']2 | %15
 [ege']2) ([Ece]2 [Ff][Gg] | [Aeg]2) ([CAc]2 [Dd][Ee]) | [EAe]2 ([A,EA]2 [B,B][Cc]) | %18
 (.[CEc]2 .[CE]2) z2 | [B,EG]2 z2 ([CEG]2 | [_A,B,DG]2) [G,B,E]2 z .[GBg] | %21
 ([FGBf]>[Ee]) (!>![Bgb]3 [Gdg]) | (!>![FGcf][Ee]) ([CEc][A,A]) ([G,DG][F,A,D]) | z6 | %24
 (6:4:6x/ x/ x/ G,/B,/G/ (6:4:6x/ x/ x/ F,/B,/F/ (6:4:6x/ x/ x/ A,/D/G/ | %25
 (6:4:6x/ x/ x/ G,/C/E/ (6:4:6x/ x/ x/ G,/C/E/ (6:4:6x/ x/ x/ A,/C/E/ | %26
 (6:4:6x/ x/ x/ B,/E/B/ (6:4:6x/ x/ x/ B,/D/G/ (6:4:6x/ x/ x/ F/B/d/ | %27
 (6:4:6x/ x/ x/ E/G/e/ (6:4:6x/ x/ x/ E/G/c/ (6:4:6x/ x/ x/ E/G/c/ | %28
 (6:4:6x/ x/ x/ E/A/c/ (6:4:6x/ x/ x/ E/G/B/ (6:4:6e/B/E/ x/ x/ x/ | %29
 (6:4:6x/ x/ x/ A,/D/A/ (6:4:6x/ x/ x/ G,/E/G/ (6:4:6x/ x/ x/ B,/E/B/ | %30
 (6:4:6x/ x/ x/ B,/D/F/ [DFd]2 [=A,E=A]2 | %31
 (6:4:6x/ x/ x/ B,/D/F/ (6:4:6x/ x/ x/ D/B/d/ (6:4:6x/ x/ x/ F/B/d/ | %32
 (6:4:6x/ x/ x/ C/=E/G/ (6:4:6x/ x/ x/ D/F/A/ (6:4:6x/ x/ x/ E/G/B/ | %33
 (6:4:6x/ x/ x/ F/A/c/ (6:4:6x/ x/ x/ G/c/(f/ (6:4:6x/) x/ x/ A/c/f/ | %34
 (6:4:6x/ x/ x/ B/f/a/ (6:4:6x/ x/ x/ c/e/g/ (6:4:6x/ x/ x/ d/f/a/ | %35
 (6:4:6x/ x/ x/ E/G/c/ (6:4:6x/ x/ x/ E/G/c/ [Fcf][Gg] | (6:4:6x/ x/ x/ C/F/A/ [CEc]2 [Dd][Ee] | %37
 [EAe]2 ([A,EA]2 [B,B][Cc]) | (.[CEc]2 .[CEF]2) z2 | [B,EB]2 z2 [CEG]2 | [A,DG] [G,E]3 z [Geg] | %41
 (!>![FBf]>[Ee]) !>![Bgb]3"^allargando" [Bgb] | (!>![Beb]>[Aa]) !>![_d_d']3 (!>![dd'] || %43
[K:G] [^c=g^c']2) [A,^CA]/E/C/A,/ z [Bga] | [Bfb]2 [B,DA]/E/D/B,/ z [Bb] | %45
 [ebe']2 [^C^c]/G/E/C/ z [cg^c'] | [dad'][Dd] [Ede][Ff] [Bdfb]>[Ff] | %47
 [Fdf][Gg] [Afg][Bb] [dgd']>[Ff] | [Fdf][Gg] [Afg][_B_b] [d^fd']>[Ff] | %49
 [Ff][Gg] [Aa][_B_b] [_e_gb_e']>[Bb] ||[K:Eb] [Be_gb][_c_c'] !fermata!z2 [=A,E]2 | %51
 [B,E]2 [G,CE]2 [F,_A,D]2 | E2 [EF]G [B,DFB]>[F,F] | ([F,F][G,G] [B,B][Ee]) [Bdb]>[ege'] | %54
 [Bdb]2 [ege']2 z2 | [G,EG]6 |] %56
V:3
 x |[M:3/4] x6 | x6 | x6 | x6 | x6 | x6 | x6 | x6 | x6 | x6 | x6 | x C/G/ x D/A/ x =E/B/ | %13
 x F/A/ x G/c/ x A/f/ | x F/A/ x c/e/ x d/a/ | x E/G/ x E/G/ x2 | x6 | x6 | x6 | x6 | x6 | x6 | %22
 x6 | x6 | x6 | x6 | x6 | x6 | x6 | x6 | x6 | x6 | ([C=Ec]2 [Dcd]2 [EB=e]2) | %33
 ([FAf]2 [Gfg]2 [Afa]2) | ([Bab]2 [cgc']2 [dad']2 | [ege']2) [Ece]2 x2 | [Aea]2 x4 | x6 | x6 | x6 | %40
 x6 | x6 | x2 a2 _g2 ||[K:G] x6 | x6 | x6 | x6 | x6 | x6 | d2 [eg]2 x2 ||[K:Eb] x6 | x6 | x6 | %53
 E2 x2 x2 | x6 | x6 |] %56
V:4
!f! [E,E] |[M:3/4] ([B,,B,][G,,G,] [E,,E,][C,,C,] [B,,,B,,])[A,B,D] | %2
 [C,,C,][G,C] [F,,,F,,][C,F,] [B,,,B,,]2 | z6 | %4
!mf! ([E,,B,,]/E,/ x/ x/) ([D,,B,,]/D,/ x/ x/) ([B,,,B,,]/D,/ x/ x/) | %5
 ([C,,C,]/E,/ x/ x/) ([B,,,B,,]/E,/!<(! x/ x/) ([A,,,A,,]/E,/ x/!<)! x/) | %6
 ([G,,,G,,]/E,/ x/ x/) ([B,,,B,,]/G,/ x/ x/) ([A,B,]/D/ x/ x/) | %7
 ([C,,C,]/G,/ x/ x/) ([C,G,]/C/ x/ x/) ([B,,G,]/C/ x/ x/) | %8
 ([A,,E,]/C/ x/ x/) ([G,,E,]/B,/ x/ x/) ([G,,,G,,]/E,/ x/ x/) | %9
 (F,,/B,,/ x/ x/) (E,,/B,,/ x/ x/) ([C,,C,]/E,/ x/ x/) | ([D,,D,]/F,/ x/ x/ [F,B,]2) !>![F,,F,]2 | %11
 ([B,,,B,,]/F,/ x/ x/) ([B,,F,]/B,/ x/ x/) ([A,B,]/D/ x/!p! x/) | %12
 ([B,,,B,,]/G,/ x/ x/) ([A,,,A,,]/F,/ x/ x/) ([G,,,G,,]/C,/ x/ x/) | %13
"^poco cresc." ([F,,,F,,]/C,/ x/ x/) ([F,,F,]/C/ x/ x/) ([E,,E,]/C/ x/ x/) | %14
 ([D,,D,]/B,/ x/ x/) ([E,,E,]/C/ x/ x/) ([B,,,B,,]/B,/ x/ x/) | %15
 ([C,,C,]/G,/ x/ x/) ([E,G,]/C/ x/ x/) [C,,C,]2 |"^dim." [F,,,F,,]2 [C,E,F,A,]2 z2 | %17
 z2 [F,,,F,,]2 [C,E,F,]2 | [F,,,F,,]2 z2 [F,,C,F,]2 | [G,,,G,,]2!p! z2 [=A,,,=A,,]2 | %20
 [B,,,B,,]2 [E,,E,]2!f! z [E,E] | ([B,,B,][G,,G,] [E,,E,][C,,C,] [B,,,B,,])[A,B,D] | %22
 !>![C,,C,][G,C] [F,,,F,,][C,F,] [B,,,B,,]2 | z6 | %24
!p! (6:4:6(E,,/B,,/E,/ x/ x/ x/) (6:4:6(D,,/B,,/D,/ x/ x/ x/) (6:4:6(B,,,/B,,/D,/ x/ x/ x/) | %25
 (6:4:6(C,,/G,,/E,/ x/ x/ x/) (6:4:6(B,,/C,/E,/ x/ x/ x/) (6:4:6(A,,/C,/E,/ x/ x/ x/) | %26
 (6:4:6(G,,/E,/G,/ x/ x/ x/) (6:4:6(D,,/D,/G,/ x/ x/ x/) (6:4:6(A,/B,/D/ x/ x/ x/) | %27
 (6:4:6(C,/E,/G,/ x/ x/ x/) (6:4:6(C,/G,/C/ x/ x/ x/) (6:4:6(B,,/G,/C/ x/ x/ x/) | %28
 (6:4:6(A,,/E,/C/ x/ x/ x/) (6:4:6(G,,/E,/B,/ x/ x/ x/ (6:4:6x/ x/ x/ B,/G,/E,/) | %29
 (6:4:6(F,,/B,,/F,/ x/ x/ x/) (6:4:6(E,,/B,,/E,/ x/ x/ x/) (6:4:6(C,/E,/G,/ x/ x/ x/) | %30
 (6:4:6(D,,/B,,/F,/ x/ x/ x/ [F,B,]2) F,2 | %31
 (6:4:6(B,,,/F,,/B,,/ x/ x/ x/) (6:4:6(B,,/F,/B,/ x/ x/ x/) (6:4:6(A,/B,/D/ x/ x/ x/) | %32
!p! (6:4:6(G,,/=E,/G,/ x/ x/ x/) (6:4:6(A,,/F,/A,/ x/ x/ x/) (6:4:6(G,,/C,/B,/ x/ x/ x/) | %33
 (6:4:6(F,,/C,/A,/ x/ x/ x/) (6:4:6(F,/C/F/ x/ x/ x/) (6:4:6(E,/C/F/ x/ x/ x/) | %34
 (6:4:6(D,/B,/F/ x/ x/ x/) (6:4:6(E,/B,/G/ x/ x/ x/) (6:4:6(B,,/A,/D/ x/ x/ x/) | %35
 (6:4:6(C,/G,/C/ x/ x/ x/) (6:4:6(E,/G,/C/ x/ x/ x/) E,2 | %36
!p! (6:4:6(F,,/C,/F,/ x/ x/ x/) [C,E,F,A,]2 x2 | [F,,,F,,]2 [C,E,F,]2 z2 | %38
 [F,,,F,,]2 [C,E,F,A,]2 z2 |!p! [G,,,G,,]2 z2 [A,,,A,,]2 | [B,,,B,,] [E,,E,]3!f! z [E,E] | %41
 [B,,B,][G,,G,]"^cresc." [E,,E,][B,,,B,,] [_D,,_D,][E,G,B,] | %42
 [C,,C,][E,A,] [_C,,_C,][_D,F,A,] [B,,,B,,][D,_G,B,] || %43
[K:G] [=A,,,=A,,]2!p! [E,G,]2 G,/E,/^C,/A,,/- | [A,,,A,,]2 z2 A,/F,/D,/(A,,/- | %45
 [A,,,A,,]2) [E,G,]2 A,/E,/^C,/A,,/ | [B,,,B,,]2!p! [D,F,B,]2"^cresc." [=C,,=C,]2 | %47
"^poco rit." [B,,,B,,]2 [D,G,D]2 [B,,,B,,]2 | %48
"^sempre allargando" [_B,,,_B,,]2 [D,G,D]2 [_A,,,_A,,]2 | %49
 [G,,,G,,]2 [_C_EG]2 [_G,,,_G,,][_G,B,_F] ||[K:Eb] [_C,,_C,][E,_G,_CE] !fermata!z z (E,2 | %51
"^colla voce" E,2) x2 x2 |"^poco cresc." [E,G,]2 F,G, x2 | x6 |!p! x6 | [E,,B,,E,]6 |] %56
V:5
 x |[M:3/4] x6 | x6 | x6 | x6 | x6 | x6 | x6 | x6 | x6 | x6 | x6 | x6 | x6 | x6 | x6 | x6 | x6 | %18
 x6 | x6 | x6 | x6 | x6 | x6 | E,,2 D,,2 B,,,2 | C,,2 B,,2 A,,2 | G,,2 D,,2 A,2 | %27
 [A,,,C,]2 C,2 B,,2 | A,,2 G,,2 x2 | F,,2 E,,2 [C,,C,]2 | D,,2 D,2 F,,2 | B,,,2 B,,2 x2 | %32
 G,,2 A,,2 G,,2 | F,,2 F,2 E,2 | D,2 E,2 B,,2 | C,2 E,2 C,,2 | [F,,,F,,]2 x2 x2 | x6 | x6 | x6 | %40
 x6 | x6 | x6 ||[K:G] x6 | x6 | x6 | x6 | x6 | x6 | x6 ||[K:Eb] x4 [_G,,,_G,,]2 | %51
 [=G,,,=G,,]2 [=A,,,=A,,]2 [B,,,B,,]2 | [E,,,E,,]2 [B,,-E,]2 [B,,E,A,]2 | %53
 [E,,,E,,]2 [B,,E,G,]2 [G,,E,B,]2 | ([F,,B,,A,]2 [E,,B,,G,]2) [E,,,E,,]2 | x6 |] %56

